X: 17788
T: Honorable Mrs. Butler's
R: reel
M: 4/4
K: Dmajor
g|fd d2BdAd|BdAd feea|fd d2 BdAg|faea fd d2:|
g|fdad bdad|gfed ceeg|fdad bdad|gbea fddg|
fdad bdad|gfed ceag|fdcd BAGF|Ebag fd d2|

